frontend/public/svg/logos/twitch.svg

<svg width="160" height="161" viewBox="0 0 160 161" fill="none" xmlns="http://www.w3.org/2000/svg">
<g clip-path="url(#clip0)">
<path d="M30.766 138.19C30.785 139.27 30.7941 140.353 30.804 141.435C30.8328 144.578 30.8624 147.827 31.119 151.018C31.7097 158.357 33.7444 160.261 41.0238 160.279H41.7695C45.4371 160.279 49.148 160.218 52.7447 160.159C56.3415 160.101 60.0412 160.038 63.699 160.038C64.0108 160.038 64.3166 160.029 64.6329 160.038C68.1872 160.038 70.7594 158.656 72.4981 155.813C74.0477 153.318 75.4595 150.741 76.7269 148.091C78.2601 144.832 79.6974 141.549 81.2202 138.075C81.8194 136.706 82.4337 135.308 83.0625 133.881L90.4253 133.339C96.1591 132.915 101.729 132.504 107.298 132.097C108.9 131.98 110.5 131.859 112.1 131.735C116.464 131.4 120.975 131.055 125.414 130.843C128.461 130.697 130.672 129.674 132.371 127.62C134.961 124.488 137.554 121.36 140.149 118.235C145.203 112.138 150.435 105.83 155.543 99.6009C158.093 96.5128 159.41 92.5905 159.243 88.5888C159.029 75.93 158.881 63.057 158.738 50.6075C158.631 41.2731 158.514 31.9389 158.388 22.6049C158.323 17.9639 158.064 13.1964 157.626 8.43462C157.187 3.67291 155.501 1.98995 150.683 1.52002C149.226 1.40765 147.763 1.38119 146.303 1.44022C145.722 1.45269 145.142 1.46486 144.563 1.46618C135.39 1.48324 126.219 1.50518 117.047 1.53187C90.3058 1.60342 62.6547 1.6763 35.46 1.55816C28.7772 1.51221 24.8897 3.49715 21.9782 8.3468C20.6782 10.3391 19.1811 12.1953 17.5092 13.8875C16.7216 14.7408 15.9123 15.6182 15.1549 16.518C13.294 18.7299 11.4383 20.9468 9.58783 23.1683C8.13208 24.9106 6.6748 26.6525 5.21597 28.394C2.45601 31.613 1.06751 35.7855 1.34821 40.0164C1.61075 46.0711 1.54508 52.2531 1.47945 58.231L1.45057 60.8395C1.3578 70.0814 1.24842 79.3233 1.1224 88.5659C1.02001 96.5988 0.923338 104.632 0.832326 112.666C0.791633 116.515 0.777841 119.987 1.02922 123.491C1.41383 128.86 2.62214 130.045 7.8341 130.156C10.7751 130.218 13.751 130.085 16.6291 129.955C18.8252 129.857 21.0968 129.754 23.3237 129.741C23.9059 129.738 24.4985 129.695 25.0715 129.653C27.0326 129.508 28.8862 129.374 30.7535 130.626C30.7535 131.295 30.7495 131.973 30.7462 132.655C30.7449 134.461 30.7371 136.329 30.766 138.19ZM13.2062 120.091C12.8275 120.067 12.4252 120.043 11.992 120.02C11.8975 119.041 11.7879 118.073 11.6796 117.117C11.3697 114.757 11.1839 112.383 11.123 110.004C11.0364 98.8284 10.9852 87.4639 10.936 76.4735C10.8828 64.7301 10.8284 52.5879 10.7306 40.6452C10.6329 38.0951 11.4856 35.5997 13.1235 33.6428C15.4299 30.8424 17.747 28.0512 20.0749 25.2696C23.581 21.0618 27.2066 16.7118 30.7148 12.3832C32.1226 10.6433 33.8901 10.6459 35.9214 10.6479L46.2411 10.628C57.7657 10.6037 69.6844 10.581 81.402 10.6033C99.4289 10.64 117.757 10.7238 135.481 10.8052L142.689 10.8382C143.854 10.8441 145.052 10.909 146.314 10.9779C146.786 11.0035 147.272 11.0299 147.779 11.0555C147.827 11.3981 147.879 11.7355 147.931 12.0669C148.109 13.0459 148.215 14.0363 148.247 15.0307C148.291 23.0245 148.326 31.0185 148.352 39.0127C148.411 54.3283 148.471 70.1667 148.629 85.7443C148.671 89.8792 147.606 92.964 145.176 95.7442C138.322 103.58 131.517 111.476 124.951 119.21C123.557 120.854 122.015 121.582 119.629 121.723C114.342 122.033 108.972 122.403 103.779 122.761C96.6474 123.253 89.2741 123.761 82.0156 124.122C77.7849 124.332 75.4306 125.989 73.8876 129.841C72.378 133.61 70.6059 137.359 68.8915 140.984C67.9687 142.936 67.0144 144.955 66.1093 146.956C64.8286 149.791 62.9822 150.888 59.9033 150.615C55.8564 150.258 51.7648 150.096 47.4329 149.926C45.7074 149.86 43.9327 149.787 42.0911 149.702L41.6789 144.172C41.3251 139.431 40.9864 134.899 40.6562 130.367C40.6123 129.76 40.5907 129.152 40.5716 128.543C40.5395 127.588 40.5059 126.601 40.3812 125.626C39.7964 121.032 38.6899 120.028 34.1513 119.966C30.1863 119.911 26.1591 119.999 22.2644 120.082C20.1641 120.127 18.0586 120.172 15.9557 120.197C15.1162 120.203 14.2682 120.157 13.2062 120.091Z" fill="black"/>
<path d="M26.7159 104.322C26.8314 107.24 28.5234 109.038 31.4809 109.383C32.9327 109.552 34.4075 109.576 35.8344 109.599C36.6404 109.611 37.4457 109.624 38.2497 109.664C39.7153 109.734 41.1803 109.831 42.8441 109.941C43.4564 109.981 44.0964 110.023 44.7717 110.066C44.7717 111.014 44.7632 111.922 44.7566 112.802C44.7402 115.095 44.7246 117.261 44.7954 119.396C44.8164 120.033 44.8288 120.672 44.842 121.313C44.8109 123.853 45.0307 126.39 45.4983 128.887C45.9984 131.132 47.2095 132.702 48.9074 133.309C49.41 133.485 49.9393 133.574 50.472 133.571C52.0507 133.506 53.5623 132.915 54.7672 131.893C55.514 131.301 56.1885 130.624 56.7769 129.874C57.8159 128.552 58.9171 127.228 59.9824 125.947C62.6182 122.777 65.344 119.5 67.4245 115.897C69.7144 111.929 72.4454 110.407 77.1008 110.506C82.7598 110.612 88.5106 110.572 94.0724 110.529C98.0039 110.499 102.069 110.469 106.065 110.492C109.305 110.51 113.032 110.291 115.902 107.427C120.852 102.482 125.635 97.5817 130.065 93.0182C133.38 89.6052 134.868 85.4217 134.616 80.2242C134.484 77.4538 134.469 74.623 134.456 71.8887C134.443 68.8827 134.429 65.7742 134.255 62.717C133.533 49.9945 132.786 39.5388 131.911 29.8119C131.462 24.8238 129.2 22.6666 123.842 22.1198C122.524 22.0175 121.201 22.0095 119.882 22.0961L119.038 22.1297C93.9057 23.0132 68.7726 23.9049 43.6389 24.8054L43.3245 24.8166C40.3237 24.9249 37.2206 25.0358 34.1779 25.3515C30.146 25.7696 29.0742 26.8015 28.4467 30.8688C28.3573 31.5379 28.3113 32.2119 28.3088 32.8869C28.3029 33.135 28.2971 33.3833 28.2859 33.6313C28.0671 38.5806 27.8431 43.53 27.6138 48.4797C27.0375 61.0401 26.4402 74.0284 26.0202 86.8099C25.8889 90.7066 26.1456 94.663 26.3904 98.4927C26.5125 100.402 26.6384 102.381 26.7159 104.322ZM36.4494 99.3873L37.3236 33.6878C47.2652 32.3626 110.132 31.9851 122.733 33.1849C122.833 34.3145 122.949 35.4558 123.065 36.6057C123.362 39.5284 123.669 42.5503 123.732 45.5432C123.888 52.8318 123.963 60.2449 124.036 67.4164C124.089 72.6015 124.143 77.9697 124.227 83.2466C124.274 86.1804 123.459 88.051 121.415 89.7024C118.885 91.7442 116.538 93.9541 113.82 96.5125C112.642 97.6198 111.4 98.7894 110.052 100.03C106.955 100.12 103.738 100.238 100.435 100.358C91.7214 100.678 82.7139 101.014 73.5698 100.936C66.9322 100.877 62.7535 103.292 59.9509 108.746C58.9264 110.741 57.8053 112.668 55.537 114.298C55.4996 113.781 55.4649 113.287 55.4301 112.811C55.3133 111.154 55.2109 109.726 55.0678 108.287C54.5703 103.274 53.3422 101.92 48.5004 101.055C45.8015 100.571 43.0489 100.225 40.1361 99.8585C38.9494 99.7108 37.7234 99.5573 36.4494 99.3873Z" fill="black"/>
<path d="M98.1255 68.0622C98.1189 70.0627 98.2764 72.06 98.5967 74.0342C98.6958 74.6518 98.9164 75.2445 99.2445 75.7768C99.5734 76.3091 100.003 76.7712 100.511 77.1367C101.064 77.5069 101.715 77.7045 102.381 77.7032C102.642 77.7025 102.904 77.6743 103.16 77.6185C103.974 77.3704 104.727 76.9536 105.369 76.3951C106.011 75.8359 106.529 75.148 106.887 74.3755C107.648 72.5955 107.644 70.4716 107.556 68.8196C107.214 62.3676 106.768 56.0384 106.233 50.0073C106.08 48.141 105.591 46.3178 104.789 44.6256C104.529 44.1298 104.129 43.7209 103.639 43.4488C103.15 43.1767 102.591 43.0533 102.033 43.0937C101.429 43.09 100.838 43.2583 100.327 43.5796C99.8175 43.9007 99.4093 44.3611 99.152 44.9063C98.6387 46.2245 98.3769 47.627 98.3788 49.0414C98.3132 51.4567 98.3237 53.9093 98.3362 56.2807C98.3401 57.0604 98.344 57.8407 98.346 58.6218C98.2653 58.6847 98.2003 58.7653 98.1563 58.857C98.1117 58.9488 98.0881 59.0495 98.0887 59.1516C98.0887 59.9635 98.0828 60.7753 98.0782 61.5865C98.0664 63.4387 98.0546 65.3534 98.1058 67.2411L98.1255 68.0622Z" fill="black"/>
<path d="M67.729 78.7428H67.7421C70.605 78.7428 72.2426 76.5769 72.6082 72.3035C72.6351 72.0488 72.6423 71.7922 72.6305 71.5356L72.3154 66.31C71.9715 60.5782 71.6151 54.6515 71.2351 48.8232C71.0553 46.0836 69.715 44.5569 67.4599 44.5313C65.1885 44.4841 63.797 46.041 63.5732 48.7536C63.335 51.6415 63.1991 54.4734 63.0685 57.2136C63.018 58.2637 62.9694 59.2784 62.9169 60.2517C62.9169 60.2635 62.9169 60.2761 62.9169 60.2879C62.9169 61.6531 62.8998 62.9645 62.8828 64.2378C62.8467 67.0154 62.8119 69.6381 62.9641 72.2516C63.2175 76.6143 64.7769 78.7375 67.729 78.7428Z" fill="black"/>
</g>
<defs>
<clipPath id="clip0">
<rect width="158.834" height="159.49" fill="white" transform="translate(0.44397 0.900391)"/>
</clipPath>
</defs>
</svg>

<svg xmlns="http://www.w3.org/2000/svg" width="160" height="161" fill="none" viewBox="0 0 160 161"><g fill="#000" clip-path="url(#a)"><path d="M30.766 138.19c.019 1.08.028 2.163.038 3.245.029 3.143.058 6.392.315 9.583.59 7.339 2.625 9.243 9.905 9.261h.745c3.668 0 7.379-.061 10.976-.12s7.296-.121 10.954-.121c.312 0 .618-.009.934 0 3.554 0 6.126-1.382 7.865-4.225a80 80 0 0 0 4.229-7.722c1.533-3.259 2.97-6.542 4.493-10.016q.9-2.053 1.843-4.194l7.362-.542c5.734-.424 11.304-.835 16.873-1.242q2.403-.176 4.802-.362c4.364-.335 8.875-.68 13.314-.892 3.047-.146 5.258-1.169 6.957-3.223q3.885-4.698 7.778-9.385c5.054-6.097 10.286-12.405 15.394-18.634a16.23 16.23 0 0 0 3.7-11.012c-.214-12.659-.362-25.532-.505-37.981q-.16-14.003-.35-28.003a184 184 0 0 0-.762-14.17c-.439-4.762-2.125-6.445-6.943-6.915a37 37 0 0 0-4.38-.08 84 84 0 0 1-1.74.026q-13.759.026-27.516.066c-26.741.071-54.392.144-81.587.026-6.683-.046-10.57 1.94-13.482 6.789a35.4 35.4 0 0 1-4.469 5.54 78 78 0 0 0-2.354 2.631 1771 1771 0 0 0-5.567 6.65 5381 5381 0 0 1-4.372 5.226 16.2 16.2 0 0 0-3.868 11.622c.263 6.055.197 12.237.131 18.215l-.028 2.608q-.14 13.863-.329 27.727-.153 12.05-.29 24.1c-.04 3.849-.054 7.321.197 10.825.385 5.369 1.593 6.554 6.805 6.665 2.941.062 5.917-.071 8.795-.201 2.196-.098 4.468-.201 6.695-.214a26 26 0 0 0 1.747-.088c1.962-.145 3.815-.279 5.682.973q0 1.005-.007 2.029c-.001 1.806-.009 3.674.02 5.535m-17.56-18.099q-.565-.036-1.214-.071c-.095-.979-.204-1.947-.312-2.903a68 68 0 0 1-.557-7.113c-.087-11.176-.138-22.54-.187-33.53a9984 9984 0 0 0-.205-35.829 10.3 10.3 0 0 1 2.393-7.002q3.46-4.2 6.95-8.373c3.507-4.208 7.133-8.558 10.64-12.887 1.409-1.74 3.176-1.737 5.207-1.735l10.32-.02a8818 8818 0 0 1 35.161-.025c18.027.037 36.355.12 54.079.202l7.208.033c1.165.006 2.363.071 3.625.14l1.465.078q.073.514.152 1.01.267 1.471.316 2.965.066 11.99.105 23.982c.059 15.315.119 31.154.277 46.731.042 4.135-1.023 7.22-3.453 10a2109 2109 0 0 0-20.225 23.466c-1.394 1.644-2.936 2.372-5.322 2.513-5.287.31-10.657.68-15.85 1.038-7.132.492-14.505 1-21.763 1.361-4.231.21-6.585 1.867-8.128 5.719-1.51 3.769-3.282 7.518-4.997 11.143a394 394 0 0 0-2.782 5.972c-1.28 2.835-3.127 3.932-6.206 3.659-4.047-.357-8.138-.519-12.47-.689-1.726-.066-3.5-.139-5.342-.224l-.412-5.53c-.354-4.741-.693-9.273-1.023-13.805a45 45 0 0 1-.084-1.824c-.033-.955-.066-1.942-.19-2.917-.586-4.594-1.692-5.598-6.23-5.66-3.966-.055-7.993.033-11.888.116-2.1.045-4.205.09-6.308.115-.84.006-1.688-.04-2.75-.106"/><path d="M26.716 104.322c.115 2.918 1.807 4.716 4.765 5.061 1.452.169 2.926.193 4.353.216.806.012 1.612.025 2.416.065 1.465.07 2.93.167 4.594.277l1.928.125c0 .948-.009 1.856-.015 2.736-.017 2.293-.032 4.459.038 6.594.021.637.034 1.276.047 1.917-.031 2.54.189 5.077.656 7.574.5 2.245 1.712 3.815 3.41 4.422a4.7 4.7 0 0 0 1.564.262 7.1 7.1 0 0 0 4.295-1.678 12 12 0 0 0 2.01-2.019c1.039-1.322 2.14-2.646 3.205-3.927 2.636-3.17 5.362-6.447 7.442-10.05 2.29-3.968 5.021-5.49 9.677-5.391 5.659.106 11.41.066 16.971.023 3.932-.03 7.997-.06 11.993-.037 3.24.018 6.967-.201 9.837-3.065 4.95-4.945 9.733-9.845 14.163-14.409 3.315-3.413 4.803-7.596 4.551-12.794-.132-2.77-.147-5.601-.16-8.335-.013-3.006-.027-6.115-.201-9.172-.722-12.722-1.469-23.178-2.344-32.905-.449-4.988-2.711-7.145-8.069-7.692a28 28 0 0 0-3.96-.024l-.844.034q-37.698 1.325-75.4 2.675l-.313.012c-3.001.108-6.104.219-9.147.535-4.032.418-5.104 1.45-5.731 5.517q-.135 1.004-.138 2.018-.008.372-.023.744-.329 7.425-.672 14.849c-.576 12.56-1.174 25.548-1.594 38.33-.131 3.897.126 7.853.37 11.683.122 1.909.248 3.888.326 5.829m9.733-4.935.875-65.7c9.941-1.324 72.808-1.702 85.409-.502.1 1.13.216 2.27.332 3.42.297 2.923.604 5.945.667 8.938.156 7.289.231 14.702.304 21.873.053 5.186.107 10.554.191 15.83.047 2.934-.768 4.805-2.812 6.456-2.53 2.042-4.877 4.252-7.595 6.81-1.178 1.108-2.42 2.277-3.768 3.518-3.097.09-6.314.208-9.617.328-8.714.32-17.721.656-26.865.578-6.638-.059-10.816 2.356-13.62 7.81-1.024 1.995-2.145 3.922-4.413 5.552l-.107-1.487c-.117-1.657-.22-3.085-.362-4.524-.498-5.013-1.726-6.367-6.568-7.232-2.699-.484-5.451-.83-8.364-1.197a417 417 0 0 1-3.687-.47"/><path d="M98.126 68.062c-.007 2 .15 3.998.47 5.972a4.76 4.76 0 0 0 1.915 3.103 3.35 3.35 0 0 0 1.87.566q.393 0 .779-.085a6.06 6.06 0 0 0 3.727-3.242c.761-1.78.757-3.904.669-5.556a534 534 0 0 0-1.323-18.813 15.5 15.5 0 0 0-1.444-5.381 2.87 2.87 0 0 0-2.756-1.532 3.17 3.17 0 0 0-2.881 1.812 11.4 11.4 0 0 0-.773 4.135c-.066 2.416-.055 4.868-.043 7.24q.007 1.17.01 2.34a.66.66 0 0 0-.257.53q-.002 1.219-.01 2.435c-.013 1.853-.024 3.767.027 5.655zM67.729 78.743h.013c2.863 0 4.5-2.166 4.866-6.44q.04-.381.022-.767l-.315-5.226c-.343-5.732-.7-11.659-1.08-17.487-.18-2.74-1.52-4.266-3.775-4.292-2.271-.047-3.663 1.51-3.887 4.223-.238 2.888-.374 5.72-.505 8.46q-.074 1.576-.151 3.038v.036c0 1.365-.017 2.677-.034 3.95-.036 2.777-.071 5.4.081 8.014.254 4.362 1.813 6.486 4.765 6.49"/></g><defs><clipPath id="a"><path fill="#fff" d="M.444.9h158.834v159.49H.444z"/></clipPath></defs></svg>
